app/img/stars.svg

<svg xmlns="http://www.w3.org/2000/svg" preserveAspectRatio="xMidYMid" width="76" height="13"><path d="M75.792 5.43l-2.905 2.899.689 4.096c.005.038.008.093.008.164a.49.49 0 0 1-.084.29.28.28 0 0 1-.244.119.639.639 0 0 1-.32-.098l-3.593-1.933L65.75 12.9a.672.672 0 0 1-.32.098c-.112 0-.196-.04-.252-.119a.49.49 0 0 1-.084-.29c0-.033.005-.088.016-.164l.688-4.096-2.912-2.899c-.134-.147-.201-.279-.201-.393 0-.202.15-.328.448-.377l4.017-.598L68.951.336c.101-.225.232-.336.392-.336s.291.111.392.336l1.8 3.726 4.017.598c.299.049.448.175.448.377 0 .12-.069.251-.208.393zM57.355 8.329l.688 4.096c.005.038.008.093.008.164a.49.49 0 0 1-.084.29.278.278 0 0 1-.244.119.642.642 0 0 1-.32-.098l-3.593-1.933-3.593 1.933a.672.672 0 0 1-.32.098c-.112 0-.196-.04-.252-.119a.49.49 0 0 1-.084-.29c0-.033.006-.088.016-.164l.688-4.096-2.912-2.899c-.134-.147-.2-.279-.2-.393 0-.202.149-.328.448-.377l4.017-.598 1.8-3.726C53.519.111 53.65 0 53.81 0s.291.111.392.336l1.8 3.726 4.017.598c.299.049.448.175.448.377 0 .12-.069.251-.208.393l-2.904 2.899zm-15.533 0l.688 4.096c.005.038.008.093.008.164a.49.49 0 0 1-.084.29.278.278 0 0 1-.244.119.642.642 0 0 1-.32-.098l-3.593-1.933-3.593 1.933a.672.672 0 0 1-.32.098c-.112 0-.196-.04-.252-.119a.49.49 0 0 1-.084-.29c0-.033.006-.088.016-.164l.688-4.096L31.82 5.43c-.133-.147-.2-.279-.2-.393 0-.202.149-.328.448-.377l4.017-.598 1.8-3.726c.101-.225.232-.336.392-.336s.291.111.392.336l1.8 3.726 4.017.598c.299.049.448.175.448.377 0 .12-.069.251-.208.393l-2.904 2.899zm-16.088 0l.688 4.096c.006.038.008.093.008.164a.49.49 0 0 1-.084.29.278.278 0 0 1-.244.119.642.642 0 0 1-.32-.098l-3.593-1.933-3.592 1.933a.675.675 0 0 1-.32.098c-.112 0-.196-.04-.252-.119a.49.49 0 0 1-.084-.29c0-.033.005-.088.016-.164l.688-4.096-2.913-2.899c-.133-.147-.2-.279-.2-.393 0-.202.15-.328.448-.377l4.017-.598 1.8-3.726C21.899.111 22.03 0 22.19 0c.159 0 .29.111.392.336l1.8 3.726 4.016.598c.3.049.449.175.449.377 0 .12-.069.251-.208.393l-2.905 2.899zm-15.533 0l.688 4.096c.006.038.009.093.009.164a.49.49 0 0 1-.084.29.28.28 0 0 1-.245.119.645.645 0 0 1-.32-.098l-3.592-1.933L3.064 12.9a.672.672 0 0 1-.32.098c-.112 0-.196-.04-.252-.119a.49.49 0 0 1-.084-.29c0-.033.005-.088.016-.164l.688-4.096L.199 5.43c-.133-.147-.2-.279-.2-.393 0-.202.15-.328.448-.377l4.017-.598L6.265.336C6.366.111 6.497 0 6.657 0s.29.111.392.336l1.8 3.726 4.017.598c.299.049.448.175.448.377 0 .12-.069.251-.208.393l-2.905 2.899z" fill="#f7cd07" fill-rule="evenodd"/></svg>

<svg xmlns="http://www.w3.org/2000/svg" xmlns:xlink="http://www.w3.org/1999/xlink" preserveAspectRatio="xMidYMid" width="76" height="13" viewBox="0 0 76 13">
  <defs>
    <style>
      .cls-1 {
        fill: #f7cd07;
        fill-rule: evenodd;
      }
    </style>
  </defs>
  <path d="M75.792,5.430 L72.887,8.329 L73.576,12.425 C73.581,12.463 73.584,12.518 73.584,12.589 C73.584,12.703 73.556,12.800 73.500,12.879 C73.444,12.959 73.362,12.998 73.256,12.998 C73.154,12.998 73.048,12.965 72.936,12.900 L69.343,10.967 L65.750,12.900 C65.633,12.965 65.526,12.998 65.430,12.998 C65.318,12.998 65.234,12.958 65.178,12.879 C65.122,12.800 65.094,12.703 65.094,12.589 C65.094,12.556 65.099,12.501 65.110,12.425 L65.798,8.329 L62.886,5.430 C62.752,5.283 62.685,5.151 62.685,5.037 C62.685,4.835 62.835,4.709 63.133,4.660 L67.150,4.062 L68.951,0.336 C69.052,0.111 69.183,-0.000 69.343,-0.000 C69.503,-0.000 69.634,0.111 69.735,0.336 L71.535,4.062 L75.552,4.660 C75.851,4.709 76.000,4.835 76.000,5.037 C76.000,5.157 75.931,5.288 75.792,5.430 ZM57.355,8.329 L58.043,12.425 C58.048,12.463 58.051,12.518 58.051,12.589 C58.051,12.703 58.023,12.800 57.967,12.879 C57.911,12.959 57.830,12.998 57.723,12.998 C57.622,12.998 57.515,12.965 57.403,12.900 L53.810,10.967 L50.217,12.900 C50.100,12.965 49.993,12.998 49.897,12.998 C49.785,12.998 49.701,12.958 49.645,12.879 C49.589,12.800 49.561,12.703 49.561,12.589 C49.561,12.556 49.567,12.501 49.577,12.425 L50.265,8.329 L47.353,5.430 C47.219,5.283 47.153,5.151 47.153,5.037 C47.153,4.835 47.302,4.709 47.601,4.660 L51.618,4.062 L53.418,0.336 C53.519,0.111 53.650,-0.000 53.810,-0.000 C53.970,-0.000 54.101,0.111 54.202,0.336 L56.002,4.062 L60.019,4.660 C60.318,4.709 60.467,4.835 60.467,5.037 C60.467,5.157 60.398,5.288 60.259,5.430 L57.355,8.329 ZM41.822,8.329 L42.510,12.425 C42.515,12.463 42.518,12.518 42.518,12.589 C42.518,12.703 42.490,12.800 42.434,12.879 C42.378,12.959 42.297,12.998 42.190,12.998 C42.089,12.998 41.982,12.965 41.870,12.900 L38.277,10.967 L34.684,12.900 C34.567,12.965 34.460,12.998 34.364,12.998 C34.252,12.998 34.168,12.958 34.112,12.879 C34.056,12.800 34.028,12.703 34.028,12.589 C34.028,12.556 34.034,12.501 34.044,12.425 L34.732,8.329 L31.820,5.430 C31.687,5.283 31.620,5.151 31.620,5.037 C31.620,4.835 31.769,4.709 32.068,4.660 L36.085,4.062 L37.885,0.336 C37.986,0.111 38.117,-0.000 38.277,-0.000 C38.437,-0.000 38.568,0.111 38.669,0.336 L40.469,4.062 L44.486,4.660 C44.785,4.709 44.934,4.835 44.934,5.037 C44.934,5.157 44.865,5.288 44.726,5.430 L41.822,8.329 ZM25.734,8.329 L26.422,12.425 C26.428,12.463 26.430,12.518 26.430,12.589 C26.430,12.703 26.402,12.800 26.346,12.879 C26.290,12.959 26.209,12.998 26.102,12.998 C26.001,12.998 25.894,12.965 25.782,12.900 L22.189,10.967 L18.597,12.900 C18.479,12.965 18.373,12.998 18.277,12.998 C18.165,12.998 18.081,12.958 18.025,12.879 C17.969,12.800 17.941,12.703 17.941,12.589 C17.941,12.556 17.946,12.501 17.957,12.425 L18.645,8.329 L15.732,5.430 C15.599,5.283 15.532,5.151 15.532,5.037 C15.532,4.835 15.682,4.709 15.980,4.660 L19.997,4.062 L21.797,0.336 C21.899,0.111 22.030,-0.000 22.190,-0.000 C22.349,-0.000 22.480,0.111 22.582,0.336 L24.382,4.062 L28.398,4.660 C28.698,4.709 28.847,4.835 28.847,5.037 C28.847,5.157 28.778,5.288 28.639,5.430 L25.734,8.329 ZM10.201,8.329 L10.889,12.425 C10.895,12.463 10.898,12.518 10.898,12.589 C10.898,12.703 10.870,12.800 10.814,12.879 C10.758,12.959 10.676,12.998 10.569,12.998 C10.468,12.998 10.362,12.965 10.249,12.900 L6.657,10.967 L3.064,12.900 C2.947,12.965 2.840,12.998 2.744,12.998 C2.632,12.998 2.548,12.958 2.492,12.879 C2.436,12.800 2.408,12.703 2.408,12.589 C2.408,12.556 2.413,12.501 2.424,12.425 L3.112,8.329 L0.199,5.430 C0.066,5.283 -0.001,5.151 -0.001,5.037 C-0.001,4.835 0.149,4.709 0.447,4.660 L4.464,4.062 L6.265,0.336 C6.366,0.111 6.497,-0.000 6.657,-0.000 C6.817,-0.000 6.947,0.111 7.049,0.336 L8.849,4.062 L12.866,4.660 C13.165,4.709 13.314,4.835 13.314,5.037 C13.314,5.157 13.245,5.288 13.106,5.430 L10.201,8.329 Z" class="cls-1"/>
</svg>
